svgs/sharp-thin/diagram-sankey.svg

<svg xmlns="http://www.w3.org/2000/svg" viewBox="0 0 576 512"><!--! Font Awesome Pro 6.6.0 by @fontawesome - https://fontawesome.com License - https://fontawesome.com/license (Commercial License) Copyright 2024 Fonticons, Inc. --><path d="M331.3 32l4.7 0 232 0 8 0 0 16-8 0L340.7 48 247 219.8l-2.3 4.2-4.7 0L8 224l-8 0 0-16 8 0 227.3 0L329 36.2l2.3-4.2zM155.6 304L8 304l-8 0 0-16 8 0 560 0 8 0 0 16-8 0-393.4 0L276.4 464 568 464l8 0 0 16-8 0-296 0-4.4 0-2.4-3.7L155.6 304z"/></svg>

<svg xmlns="http://www.w3.org/2000/svg" viewBox="0 0 576 512"><!--! Font Awesome Pro 6.5.2 by @fontawesome - https://fontawesome.com License - https://fontawesome.com/license (Commercial License) Copyright 2024 Fonticons, Inc. --><path d="M331.3 32H336 568h8V48h-8H340.7L247 219.8l-2.3 4.2H240 8 0V208H8 235.3L329 36.2l2.3-4.2zM155.6 304H8 0V288H8 568h8v16h-8H174.6L276.4 464H568h8v16h-8H272h-4.4l-2.4-3.7L155.6 304z"/></svg>
